!!!!SEGMENT: pl-kk--kk-i-3--057_anonim--prosa-pro-feriis-quartis-rex-caeli-et-terrae.krn
!!!cenid: 15xx:716
!!!COM: Anonim
!!!COM-rismID: pe30004985
!!!CDT:
!!!CNT:
!!!OTL: Prosa pro Feriis Quartis/Rex caeli et terrae
!!!PDT:
!!!AGN:
!!!SMS-siglum: PL-Kk
!!!SMS-shelfmark: Kk.I.3
!!!SMS-shelfwork: 057 W
!!!SMS-variant:
!!!SMS-altvar:
!!!NIFC-rismSourceID: 1001145493
!!!NIFC-islandoraID: pl-kk:1170
!!!URL-pdf-islandora: https://repozytorium.nifc.pl/islandora/object/pl-kk%3A1170/datastream/PDF/view
!!!URL-scan: https://polish.musicsources.pl/pl/lokalizacje/galeria/rekopisy/5919 @EN{Scan on Polish Music Sources Website} @PL{Skany w portalu Dziedzictwo Muzyki Polskiej w otwartym dostępie}
!!!ONB-nifc: UWAGA: Discantus (s. 153v-155v, skan 0156-0158), Tenor (s. 114v-116r, skan 0287-0288), Bassus (s. 147v-149v, skan 0451-0453)
!!!AIN: 1 bass 1 empty 1 tenor
!!!key:
**kern	**text	**text	**kern	**text	**text	**kern	**text	**text
*part3	*part3	*part3	*part2	*part2	*part2	*part1	*part1	*part1
*staff3	*staff3	*staff3	*staff2	*staff2	*staff2	*staff1	*staff1	*staff1
*Ibass	*	*	*Itenor	*	*	*Iempty	*	*
*I"[Bassus]	*	*	*I"[Tenor]	*	*	*I"[Discantus]	*	*
*I'B	*	*	*I'T	*	*	*I'S	*	*
*ICvox	*	*	*ICvox	*	*	*ICvox	*	*
*IG	*	*	*	*	*	*	*	*
*clefF4	*	*	*clefC4	*	*	*clefC3	*	*
*k[b-]	*	*	*k[b-]	*	*	*k[b-]	*	*
*F:	*	*	*F:	*	*	*F:	*	*
*M2/1	*	*	*M2/1	*	*	*M2/1	*	*
*met(C|)	*	*	*met(C|)	*	*	*met(C|)	*	*
*2\right	*	*	*2\right	*	*	*2\right	*	*
*all\right	*	*	*all\right	*	*all\right	*	*	*
=1-	=1-	=1-	=1-	=1-	=1-	=1-	=1-	=1-
1C	Rex	Haec	1C	Rex	Haec	1c	Rex	Haec
1FF	cae-	sa-	1F	cae-	sa-	1c	cae-	ſa-
=2-	=2-	=2-	=2-	=2-	=2-	=2-	=2-	=2-
1BB-	-li	-lu-	1F	-li	-lu-	1d	-li	-lu-
1GG	et	-ta-	1G	et	-ta-	1d	et	-ta-
=3-	=3-	=3-	=3-	=3-	=3-	=3-	=3-	=3-
1C	ter-	-tio	1E	ter-	-tio	1c	ter-	-tio
2FF/	-rae	ve-	1F	-rae	.	2A/	-rae	ve-
1F\	no-	-ra	.	.	.	2c/	no-	-ra
=4-	=4-	=4-	=4-	=4-	=4-	=4-	=4-	=4-
.	.	.	1G	no-	ve-	2d\	-lens	per-
2E\	-lens	per-	.	.	.	2e\	vl-	-fe-
2D\	vl-	-fe-	1A	-lens	-ra	2f\	-tra	-cti-
2C/	-tra	-cti-	.	.	.	2e\	fer-	.
=5-	=5-	=5-	=5-	=5-	=5-	=5-	=5-	=5-
1BB-	fer-	-oo	1B-	vl-	per-	1d	-re	-o
*custos:C	*	*	*custos:G	*	*	*	*	*
1FF	-re	ſa-	1A	-tra	-fe-	2c/	mit-	.
!LO:LB:g=original	!	!	!LO:LB:g=original	!	!	!	!	!
.	.	.	.	.	.	1f\	-tit	ſa-
=6-	=6-	=6-	=6-	=6-	=6-	=6-	=6-	=6-
1C	mit-	-lu-	1G	fer-	-cti-	.	.	.
*	*	*	*	*	*	*custos:f	*	*
.	.	.	.	.	.	2e\	.	-lu-
!	!	!	!	!	!	!LO:LB:g=original	!	!
1.D	-tit	-ti	1F	-re	-o	2f\	ad	-ti
.	.	.	.	.	.	1f\	vir-	.
=7-	=7-	=7-	=7-	=7-	=7-	=7-	=7-	=7-
.	.	.	1A	mit-	ſa-	.	.	.
4C/	.	.	.	.	.	4e\	-gi-	.
4BB-/	.	.	.	.	.	4d\	-nem	.
2AA/	ad	con-	1c	-tit	-lu-	2c/	.	con-
2AA/	vir-	-gru-	.	.	.	2A/	.	-gru-
=8-	=8-	=8-	=8-	=8-	=8-	=8-	=8-	=8-
4GG/	.	-it	1B-	ad	-ti	2B-/	.	-it
4AA/	.	.	.	.	.	.	.	.
4BB-/	.	.	.	.	.	1d	.	.
4C/	.	.	.	.	.	.	.	.
4D\	.	.	1A	vir-	con-	.	.	.
4E\	.	.	.	.	.	.	.	.
1F\	.	.	.	.	.	2c/	.	.
=9-	=9-	=9-	=9-	=9-	=9-	=9-	=9-	=9-
.	.	.	1G	-gi-	-gru-	1c	.	.
2E\	.	.	.	.	.	.	.	.
1D	-gi-	.	1F	-nem	-it	2r	.	.
.	.	.	.	.	.	2d\	per	dum
=10-	=10-	=10-	=10-	=10-	=10-	=10-	=10-	=10-
*	*	*	*lig	*	*	*	*	*
2C/	-nem	.	1E	per	dum	2e\	.	.
*custos:D	*	*	*	*	*	*	*	*
2C/	per	dum	.	.	.	2g\	for-	vir-
!LO:LB:g=original	!	!	!	!	!	!	!	!
1D	for-	vir-	1F	.	.	2f\	-ti-	.
.	.	.	.	.	.	2.d\	-tu-	-go
*	*	*	*Xlig	*	*	*	*	*
=11-	=11-	=11-	=11-	=11-	=11-	=11-	=11-	=11-
4GG/	-ti-	-go	1G	for-	vir-	.	.	.
4AA/	.	.	.	.	.	4c\	.	.
4BB-/	.	.	.	.	.	4d\	.	.
4C/	.	.	.	.	.	4e\	.	.
*	*	*	*	*	*	*custos:d	*	*
2D\	.	.	1D	-ti-	-go	2f\	.	.
!	!	!	!	!	!	!LO:LB:g=original	!	!
2BB-/	-tu-	pe-	.	.	.	2.d\	.	.
=12-	=12-	=12-	=12-	=12-	=12-	=12-	=12-	=12-
*	*	*	*custos:D	*	*	*	*	*
1C	-di-	-pe-	1E	-tu-	.	.	.	.
!	!	!	!LO:LB:g=original	!	!	!	!	!
.	.	.	.	.	.	4c/	.	.
.	.	.	.	.	.	1c	.	pe-
1GG	-nem	-rit	1D	-di-	pe-	.	.	.
.	.	.	.	.	.	2B-/	-di-	-pe-
=13-	=13-	=13-	=13-	=13-	=13-	=13-	=13-	=13-
2.G\	ſpem	cae-	1C	-nem	-rit	1c	-nem	-rit
4F\	.	-le-	.	.	.	.	.	.
2E\	Vi-	-ſtem	1G	ſpem	cae-	2r	.	.
2C/	-ta(m)	.	.	.	.	2e\	for-	du(m)
=14-	=14-	=14-	=14-	=14-	=14-	=14-	=14-	=14-
1D	ho-	Do-	1F	vi-	-le-	2d\	-ti-	vir-
.	.	.	.	.	.	1f	-tu-	-go
*	*	*	*lig	*	*	*	*	*
1C	-mi-	-mi-	1G	.	.	.	.	.
.	.	.	.	.	.	2e\	-di-	pe-
=15-	=15-	=15-	=15-	=15-	=15-	=15-	=15-	=15-
1FF	-num	-num	1A	.	.	2f\	-nem	-pe-
.	.	.	.	.	.	2F/	.	-rit
*	*	*	*Xlig	*	*	*	*	*
2r	.	.	1F	-tam	-ſtem	2c/	ſpem	cae-
*custos:AA	*	*	*	*	*	*	*	*
2BB-/	ſpem	cae-	.	.	.	2d\	.	-le-
!LO:LB:g=original	!	!	!	!	!	!	!	!
=16-	=16-	=16-	=16-	=16-	=16-	=16-	=16-	=16-
*	*	*	*lig	*	*	*	*	*
2AA/	vi-	-le-	1F	ho-	Do-	2c/	vi-	-ſtem
2BB-/	-tam	-ſtem	.	.	.	1B-	-tam	.
1C	ho-	Do-	1E	.	.	.	.	.
.	.	.	.	.	.	2A/	.	Do-
*	*	*	*Xlig	*	*	*	*	*
=17-	=17-	=17-	=17-	=17-	=17-	=17-	=17-	=17-
2BB-/	-mi-	-mi-	1D	.	.	2B-/	ho-	.
2D/	-num.	-num	.	.	.	4A/	-mi-	-mi-
.	.	.	.	.	.	4B-/	.	.
1C	.	.	1E	-mi-	-mi-	2c\	.	.
.	.	.	.	.	.	2c\	-num.	-num.
=18-	=18-	=18-	=18-	=18-	=18-	=18-	=18-	=18-
*	*	*	*custos:A	*	*	*custos:e	*	*
0FF	.	.	0F	-num	-num	0c	.	.
!	!	!	!LO:LB:g=original	!	!	!LO:LB:g=original	!	!
=19||-	=19||-	=19||-	=19||-	=19||-	=19||-	=19||-	=19||-	=19||-
0AA	Mu-	Sal-	1A	Mu-	Sal-	1.e	Mu-	Sal-
.	.	.	1c	-ta-	-va-	.	.	.
.	.	.	.	.	.	4d\	-ta-	-va-
.	.	.	.	.	.	4c\	.	.
=20-	=20-	=20-	=20-	=20-	=20-	=20-	=20-	=20-
1C	-ta-	-va-	1c	-vit	-vit	2e\	.	.
.	.	.	.	.	.	2e\	-vit	-vit
4GG/	-vit	-vit	1B-	na-	fa-	0d	.	.
4AA/	.	.	.	.	.	.	.	.
4BB-/	.	.	.	.	.	.	.	.
4C/	.	.	.	.	.	.	.	.
=21-	=21-	=21-	=21-	=21-	=21-	=21-	=21-	=21-
4D\	.	.	1A	-tu-	-ctu-	.	.	.
4E\	.	.	.	.	.	.	.	.
1F	.	.	.	.	.	.	.	.
.	.	.	1G	-ram	-ram	2r	.	.
*custos:D	*	*	*	*	*	*	*	*
2E\	.	.	.	.	.	2c/	mu-	Sal-
!LO:LB:g=original	!	!	!	!	!	!	!	!
=22-	=22-	=22-	=22-	=22-	=22-	=22-	=22-	=22-
2D\	na-	fa-	1A	cae-	na-	2d\	-ta-	-va-
2C/	-tu-	-ctu-	.	.	.	2e\	-vit	-vit
1D	-ram	-ram	1F	-le-	-tus	2f\	.	.
.	.	.	.	.	.	2d\	na-	fa-
=23-	=23-	=23-	=23-	=23-	=23-	=23-	=23-	=23-
2GG/	.	.	1B-	-ſtis	vi-	2.d\	-tu-	-ctu-
2G\	cae-	na-	.	.	.	.	.	.
.	.	.	.	.	.	4e\	-ram	-ram
2D\	-le-	-tus	1A	ar-	-ri-	2f\	.	.
2F\	-ſtis	.	.	.	.	1d\	cae-	na-
=24-	=24-	=24-	=24-	=24-	=24-	=24-	=24-	=24-
1E	ar-	vi-	1G	-bi-	-li-	.	.	.
.	.	.	.	.	.	2c/	-le-	-tus
*	*	*	*custos:A	*	*	*	*	*
2D/	-bi-	-ri-	1A	-ter	-ter	2d\	-ſtis	vi-
!	!	!	!LO:LB:g=original	!	!	!	!	!
2D/	-ter	-li-	.	.	.	2d\	ar-	-ri-
=25-	=25-	=25-	=25-	=25-	=25-	=25-	=25-	=25-
1D	hu-	-ter	1A	hu-	om-	1f	-bi-	-li-
*	*	*	*	*	*	*custos:e	*	*
2AA/	-ma-	om-	1c	-ma-	-nem	2e\	-ter	-ter
!	!	!	!	!	!	!LO:LB:g=original	!	!
1C/	-na(m)	-ne(m)	.	.	.	1e\	.	.
=26-	=26-	=26-	=26-	=26-	=26-	=26-	=26-	=26-
.	.	.	1c	-nam	no-	.	.	.
2C/	fi-	na-	.	.	.	2e\	.	.
2GG/	-gu-	-ci-	1B-	fi-	-ci-	0d	.	.
1G\	-ra(m)	-tu-	.	.	.	.	.	.
=27-	=27-	=27-	=27-	=27-	=27-	=27-	=27-	=27-
.	.	.	1A	-gu-	-tu-	.	.	.
2F\	ad-	-ra(m)	.	.	.	.	.	.
*custos:D	*	*	*	*	*	*	*	*
1E	-iunx(it)	fugavit	1G	-ram	-ram	2r	.	.
!LO:LB:g=original	!	!	!	!	!	!	!	!
.	.	.	.	.	.	2c/	Hu-	o-
=28-	=28-	=28-	=28-	=28-	=28-	=28-	=28-	=28-
2D/	pa-	for-	1A	ad-	fu-	2d\	-ma-	-mnem
2C/	-ri-	-ti-	.	.	.	2e\	-na(m)	.
1D	-ter	-ter	1F	-iun-	-ga-	1f	fi-	no-
=29-	=29-	=29-	=29-	=29-	=29-	=29-	=29-	=29-
2GG/	.	.	1B-	-xit	-vit	2.d\	-gu-	-ci-
2G\	ſu-	red-	.	.	.	.	.	.
.	.	.	.	.	.	4e\	-ra(m)	-tu-
2D/	-ae	-dens	1A	pa-	for-	2f\	a-	-ra(m)
2F\	de-	.	.	.	.	1d\	-di-	.
=30-	=30-	=30-	=30-	=30-	=30-	=30-	=30-	=30-
1E	-i-	.	1G	-ri-	-ti-	.	.	.
.	.	.	.	.	.	2c/	-un-	fu-
*	*	*	*lig	*	*	*	*	*
1D	-ta-	fa-	1F	-ter	-ter	2d\	-xit	-ga-
.	.	.	.	.	.	4c/	.	-vit
.	.	.	.	.	.	4B-/	.	.
=31-	=31-	=31-	=31-	=31-	=31-	=31-	=31-	=31-
*	*	*	*custos:G	*	*	*	*	*
2AA/	-ti	-ni-	1E	.	.	4c/	.	.
!	!	!	!LO:LB:g=original	!	!	!	!	!
.	.	.	.	.	.	4d\	.	.
1C	.	-ta-	.	.	.	2.e\	.	.
*	*	*	*Xlig	*	*	*	*	*
.	.	.	1G	ſu-	red-	.	.	.
.	.	.	.	.	.	4d\	.	.
2BB-/	.	-ti.	.	.	.	1d\	pa-	for-
=32-	=32-	=32-	=32-	=32-	=32-	=32-	=32-	=32-
1AA	.	.	1A	-ae	-dens	.	.	.
*	*	*	*	*	*	*custos:d	*	*
.	.	.	.	.	.	2c/	-ri-	-ti-
!	!	!	!	!	!	!LO:LB:g=original	!	!
1D	.	.	1F	de-	ſa-	2d\	-ter	-ter
.	.	.	.	.	.	2.f\	.	red-
=33-	=33-	=33-	=33-	=33-	=33-	=33-	=33-	=33-
*	*	*	*lig	*	*	*	*	*
2r	.	.	1F	-i-	-ni-	.	.	.
.	.	.	.	.	.	4e\	ſu-	.
2D/	.	.	.	.	.	1d	-ae	-dens
2E\	.	.	1E	.	.	.	.	.
2G\	.	.	.	.	.	2c/	de-	ſa-
*custos:F	*	*	*	*	*	*	*	*
*	*	*	*Xlig	*	*	*	*	*
=34-	=34-	=34-	=34-	=34-	=34-	=34-	=34-	=34-
2F\	.	.	1D	.	.	2d\	-i-	-ni-
!LO:LB:g=original	!	!	!	!	!	!	!	!
4E\	.	.	.	.	.	2B-/	-ta-	.
4D\	.	.	.	.	.	.	.	.
2C/	.	.	1E	-ta-	-ta-	1c	-ti.	-ta-
2C/	.	.	.	.	.	.	.	.
=35-	=35-	=35-	=35-	=35-	=35-	=35-	=35-	=35-
0FF	.	.	0F	-ti	-ti	0c	.	-ti
=36||-	=36||-	=36||-	=36||-	=36||-	=36||-	=36||-	=36||-	=36||-
1C	For-	Vo-	1C	For-	Vo-	1c	For-	Vo-
*	*	*	*custos:F	*	*	*	*	*
2GG/	-tis	-tum	1D	-tis	-tum	2B-/	-tis	-rum
!	!	!	!LO:LB:g=original	!	!	!	!	!
1BB-/	pro-	a-	.	.	.	1d\	pro-	a-
=37-	=37-	=37-	=37-	=37-	=37-	=37-	=37-	=37-
.	.	.	1F	pro-	a-	.	.	.
2C/	-fi-	-bi-	.	.	.	1c	-ſi-	-bi-
1D	-li-	-ci-	1F	-fi-	-bi-	.	.	.
.	.	.	.	.	.	2B-/	-li-	-ci-
=38-	=38-	=38-	=38-	=38-	=38-	=38-	=38-	=38-
*	*	*	*	*	*	*custos:d	*	*
2C/	-ens	-ens	1E	-li-	-ci-	1c	-ens	-ens
!	!	!	!	!	!	!LO:LB:g=original	!	!
1C	ex	ter-	.	.	.	.	.	.
.	.	.	1G	-ens	-ens	2r	.	.
2BB-/	mem-	-ro-	.	.	.	2d\	ex	ter-
=39-	=39-	=39-	=39-	=39-	=39-	=39-	=39-	=39-
*custos:FF	*	*	*	*	*	*	*	*
1C	-bris	-ris	1E	ex	ter-	2c/	mem-	-no-
!LO:PB:g=original	!	!	!	!	!	!	!	!
.	.	.	.	.	.	2c/	-bris	-ris
2.FF/	vir-	ve-	1F	mem-	-ro-	2.A/	.	.
4GG/	.	.	.	.	.	4B-/	vir-	.
=40-	=40-	=40-	=40-	=40-	=40-	=40-	=40-	=40-
*	*	*	*lig	*	*	*	*	*
4AA/	.	.	1E	-bris	-ris	4c\	.	ve-
4BB-/	.	.	.	.	.	4d\	.	.
2C/	.	.	.	.	.	2e\	.	.
2C/	.	.	1D	.	.	2c/	.	.
2BB-/	-gi-	.	.	.	.	2.d\	.	.
*	*	*	*Xlig	*	*	*	*	*
=41-	=41-	=41-	=41-	=41-	=41-	=41-	=41-	=41-
2AA/	-nis	-te-	1E	vir-	ve-	.	.	.
.	.	.	.	.	.	4c/	-gi-	.
2C/	.	-ris	.	.	.	1c	-nis	-te-
1GG	.	.	1D	-gi-	-te-	.	.	.
.	.	.	.	.	.	2B-/	.	-ris
=42-	=42-	=42-	=42-	=42-	=42-	=42-	=42-	=42-
1G	car-	nor-	1C	-nis	-ris	1c	.	.
*	*	*	*custos:D	*	*	*	*	*
2E\	.	.	1C	car-	nor-	2r	.	.
!	!	!	!LO:LB:g=original	!	!	!	!	!
2C/	-nem	-mam	.	.	.	2c/	car-	nor-
=43-	=43-	=43-	=43-	=43-	=43-	=43-	=43-	=43-
2.F\	.	.	1D	-nem	-mam	1A	-nem	-mam
4E\	.	.	.	.	.	.	.	.
4D/	re-	.	1F	re-	con-	2F/	.	.
4C/	-fi-	.	.	.	.	.	.	.
1D\	-ci-	con-	.	.	.	1f\	re-	con-
=44-	=44-	=44-	=44-	=44-	=44-	=44-	=44-	=44-
.	.	.	1F	-fi-	-fi-	.	.	.
2D/	-ens	-fi-	.	.	.	4e\	-fi-	-fi-
*	*	*	*	*	*	*custos:c	*	*
.	.	.	.	.	.	4d\	.	.
!	!	!	!	!	!	!LO:LB:g=original	!	!
2AA/	.	-ci-	1E	-ci-	-ci-	2c\	-ci-	-ci-
2C/	.	-ens	.	.	.	2c\	-ens	-ens
=45-	=45-	=45-	=45-	=45-	=45-	=45-	=45-	=45-
2GG/	.	.	1G	-ens	-ens	2d\	.	.
*custos:BB-	*	*	*	*	*	*	*	*
1C	.	.	.	.	.	1e	.	.
!LO:LB:g=original	!	!	!	!	!	!	!	!
.	.	.	1G	mi-	no-	.	.	.
2BB-/	.	.	.	.	.	2d\	mi-	no-
=46-	=46-	=46-	=46-	=46-	=46-	=46-	=46-	=46-
1AA	.	.	1A	-ſe-	-vis	1c	-ſe-	-vis
2GG/	.	.	1B-	-ri	ex	2d\	-ri	ex
1G\	mi-	no-	.	.	.	2.e\	.	li-
=47-	=47-	=47-	=47-	=47-	=47-	=47-	=47-	=47-
.	.	.	1A	ho-	li-	.	.	.
.	.	.	.	.	.	4d\	ho-	-te-
2F\	-ſe-	-vis	.	.	.	1d	-mi-	-ris
1E	-ri	.	1G	-mi-	-te-	.	.	.
.	.	.	.	.	.	2c/	-nis	.
=48-	=48-	=48-	=48-	=48-	=48-	=48-	=48-	=48-
*	*	*	*lig	*	*	*	*	*
2D/	ho-	ex	1F	-nis	-ris	2d\	.	.
1D	-mi-	li-	.	.	.	2A/	ho-	ex
*	*	*	*custos:G	*	*	*	*	*
!	!	!	!	!	!	!LO:TX:t=P:problem=# below	!	!
!	!	!	!	!	!	!LO:N:acc=#	!	!
.	.	.	1E	.	.	2Bn/	-mi-	li-
!	!	!	!LO:LB:g=original	!	!	!	!	!
2C/	-nis	-te-	.	.	.	2c\	-nis	-te-
*	*	*	*Xlig	*	*	*	*	*
=49-	=49-	=49-	=49-	=49-	=49-	=49-	=49-	=49-
1BB-	.	-ris	1G	fa-	for-	1d	.	-ris
2AA/	.	.	1A	-ctor	-ma	1c	.	.
2FF/	.	.	.	.	.	.	.	.
=50-	=50-	=50-	=50-	=50-	=50-	=50-	=50-	=50-
2BB-/	fa-	for-	1F	glo-	.	2r	.	.
*	*	*	*	*	*	*custos:d	*	*
2AA/	.	-ma	.	.	.	2c/	fa-	for-
!	!	!	!	!	!	!LO:PB:g=original	!	!
*	*	*	*lig	*	*	*	*	*
2BB-/	-ctor	.	1F	-ri-	ſpe-	2d\	.	-ma
2D/	glo-	.	.	.	.	2B-/	-ctor	.
=51-	=51-	=51-	=51-	=51-	=51-	=51-	=51-	=51-
*	*	*	*	*	*	*lig	*	*
2C/	.	.	1E	.	-ci-	1c	glo-	ſpe-
2AA/	-ri-	ſpe-	.	.	.	.	.	.
*	*	*	*Xlig	*	*	*	*	*
2BB-/	-o-	-ci-	1D	.	.	1d	-ri-	-ci-
2GG/	-ſus	-o-	.	.	.	.	.	.
*	*	*	*	*	*	*Xlig	*	*
=52-	=52-	=52-	=52-	=52-	=52-	=52-	=52-	=52-
1C	.	-ſus	1E	-o-	-o-	1c	-o	-o-
*custos:C	*	*	*	*	*	*	*	*
1FF	.	.	1F	-ſus	-ſus.	1c	ſus.	-ſus
!LO:LB:g=original	!	!	!	!	!	!	!	!
=53||-	=53||-	=53||-	=53||-	=53||-	=53||-	=53||-	=53||-	=53||-
1r	.	.	1F	Dum	At-	1f	Dum	At-
0C	Dum	At-	1c	a-	-ten-	1e	a-	-ten-
=54-	=54-	=54-	=54-	=54-	=54-	=54-	=54-	=54-
*	*	*	*custos:d	*	*	*	*	*
.	.	.	1c	-ve	-de	2e\	-ve	-de
!	!	!	!LO:LB:g=original	!	!	!	!	!
.	.	.	.	.	.	1g	pro-	pu-
*	*	*	*clefC3	*	*	*	*	*
1G	a-	-ten-	1d	pro-	pu-	.	.	.
.	.	.	.	.	.	4f\	.	.
.	.	.	.	.	.	4e\	.	.
=55-	=55-	=55-	=55-	=55-	=55-	=55-	=55-	=55-
1G	-ve	-de	1B-	-tu-	-di-	2d\	-tu-	-di-
.	.	.	.	.	.	2d\	-lit	-ra
2A\	pro-	pu-	1c	-lit	-ra	2c/	.	.
2F\	-tu-	-di-	.	.	.	2f\	An-	au-
=56-	=56-	=56-	=56-	=56-	=56-	=56-	=56-	=56-
1D	-lit	-ra	1d	An-	au-	2.f\	-ge-	-di
.	.	.	.	.	.	4e\	.	.
1D	An-	au-	1f	-ge-	-di	4d\	.	.
.	.	.	.	.	.	4c/	.	.
*	*	*	*	*	*	*custos:c	*	*
.	.	.	.	.	.	2d\	.	.
!	!	!	!	!	!	!LO:LB:g=original	!	!
=57-	=57-	=57-	=57-	=57-	=57-	=57-	=57-	=57-
2F\	-ge-	-di	1c	-lus	mi-	2c/	-lus	mi-
2C/	-lus	mi-	.	.	.	1g	Vir-	-ri-
1G	vir-	-ri-	1d	vir-	-ri-	.	.	.
.	.	.	.	.	.	4f\	.	.
.	.	.	.	.	.	4e\	.	.
=58-	=58-	=58-	=58-	=58-	=58-	=58-	=58-	=58-
1G	-gi-	-fi-	1B-	-gi-	-fi-	2d\	.	-fi-
.	.	.	.	.	.	2d\	-gi-	-ca
2C/	-ni	-ca	1c	-ni	-ca	1e	-ni	.
1C/	Sunc	Ver-	.	.	.	.	.	.
=59-	=59-	=59-	=59-	=59-	=59-	=59-	=59-	=59-
.	.	.	1d	Sunc	ver-	2r	.	.
2BB-/	ſe-	-ba	.	.	.	2d\	ſunt	ver-
2AA/	-cun-	An-	1e	ſe-	-ba	2c/	.	.
2GG/	.	-ge-	.	.	.	2B-/	ſe-	-ba
=60-	=60-	=60-	=60-	=60-	=60-	=60-	=60-	=60-
1FF	.	-li-	1f	-cu(n)-	An-	2.A/	-cu(n)-	An-
.	.	.	.	.	.	4B-/	-de	-ge-
*custos:BB-	*	*	*custos:d	*	*	*	*	*
1AA	-de	-ca	1e	-de	-ge-	4c/	.	-li-
!LO:LB:g=original	!	!	!LO:PB:g=original	!	!	!	!	!
.	.	.	.	.	.	4B-/	.	.
.	.	.	.	.	.	4A/	tu-	-ca
.	.	.	.	.	.	4G/	.	.
=61-	=61-	=61-	=61-	=61-	=61-	=61-	=61-	=61-
1BB-	tu-	.	1d	tu-	-li-	2F/	-lit	.
.	.	.	.	.	.	1f	ma-	te
1C	-lit	.	1c	-lit	-ca	.	.	.
.	.	.	.	.	.	2e\	-tri	vir-
=62-	=62-	=62-	=62-	=62-	=62-	=62-	=62-	=62-
2D\	ma-	te	1A	ma-	te	2f\	et	-tus
1F	-tri	vir-	.	.	.	2.c/	vir-	cae-
.	.	.	1c	-tri	vir-	.	.	.
.	.	.	.	.	.	4d\	.	.
*	*	*	*	*	*	*custos:f	*	*
2E\	.	-tus	.	.	.	2e\	.	.
!	!	!	!	!	!	!LO:LB:g=original	!	!
=63-	=63-	=63-	=63-	=63-	=63-	=63-	=63-	=63-
2D\	et	.	1d	et	-tus	1f	-gi-	-li-
2BB-/	vir-	cae-	.	.	.	.	.	.
1C	-gi-	-li-	1c	vir-	cae-	1e	-ni	-ca
=64-	=64-	=64-	=64-	=64-	=64-	=64-	=64-	=64-
*	*	*	*lig	*	*	*	*	*
1GG	-ni	-ca	1B-	-gi-	-li-	4d\	.	.
.	.	.	.	.	.	4e\	.	.
.	.	.	.	.	.	4f\	.	.
.	.	.	.	.	.	4d\	.	.
1r	.	.	1A	.	.	2e\	.	.
.	.	.	.	.	.	1f\	.	.
*	*	*	*Xlig	*	*	*	*	*
=65-	=65-	=65-	=65-	=65-	=65-	=65-	=65-	=65-
2r	.	.	1G	.	.	.	.	.
2G\	ca-	o-	.	.	.	2e\	.	.
2A\	-ſto	-bum-	1F	-ni	-ca	2f\	.	o-
1F\	.	-brat	.	.	.	1c\	ca-	-bum-
=66-	=66-	=66-	=66-	=66-	=66-	=66-	=66-	=66-
.	.	.	1A	ca-	o-	.	.	.
4E\	in	.	.	.	.	2d\	-ſto	-brat
4D\	.	.	.	.	.	.	.	.
2C/	v-	in	1c	-ſto	-bum-	1e	in	in
2AA/	-te-	v-	.	.	.	.	.	.
=67-	=67-	=67-	=67-	=67-	=67-	=67-	=67-	=67-
*	*	*	*custos:A	*	*	*	*	*
2BB-/	-ro	-te-	1B-	in	-brat	1d	v-	v-
!	!	!	!LO:LB:g=original	!	!	!	!	!
2GG/	.	-ro	.	.	.	.	.	.
*	*	*	*lig	*	*	*	*	*
2AA/	.	.	1A	v-	in-	1c	-te-	-te-
2FF/	.	.	.	.	.	.	.	.
=68-	=68-	=68-	=68-	=68-	=68-	=68-	=68-	=68-
*custos:FF	*	*	*	*	*	*	*	*
1C	.	.	1G	.	.	1c	-ro	-ro.
!LO:LB:g=original	!	!	!	!	!	!	!	!
*	*	*	*Xlig	*	*	*	*	*
*	*	*	*lig	*	*	*	*	*
2.FF/	.	.	1F	.	.	2r	.	.
.	.	.	.	.	.	2c/	.	.
4GG/	.	.	.	.	.	.	.	.
=69-	=69-	=69-	=69-	=69-	=69-	=69-	=69-	=69-
4AA/	.	.	1E	.	-v-	2.c/	.	.
4BB-/	.	.	.	.	.	.	.	.
1C	.	.	.	.	.	.	.	.
.	.	.	.	.	.	4d\	.	.
*	*	*	*	*	*	*custos:e	*	*
*	*	*	*Xlig	*	*	*	*	*
.	.	.	0G	-te-	-te-	2e\	.	.
!	!	!	!	!	!	!LO:LB:g=original	!	!
2BB-/	.	.	.	.	.	1f\	.	.
=70-	=70-	=70-	=70-	=70-	=70-	=70-	=70-	=70-
1C	.	.	.	.	.	.	.	.
.	.	.	.	.	.	2e\	.	.
1FF	.	.	1F	-ro	-ro	1f	.	.
=71||-	=71||-	=71||-	=71||-	=71||-	=71||-	=71||-	=71||-	=71||-
0r	.	.	1A	Pa-	Fi-	1r	.	.
.	.	.	1G	-tet	-unt	1d	Pa-	Fi-
=72-	=72-	=72-	=72-	=72-	=72-	=72-	=72-	=72-
1AA	Pa-	Fi-	1A	haec	ſo-	1c	-tet	-unt
1GG	-tt	-unt	1B-	v-	-la-	2d\	haec	ſo-
.	.	.	.	.	.	2B-/	v-	-la-
=73-	=73-	=73-	=73-	=73-	=73-	=73-	=73-	=73-
2AA/	haec	ſo-	1A	-nio	-ti-	1c	-nio	-ci-
2C/	v-	-la-	.	.	.	.	.	.
*	*	*	*custos:A	*	*	*	*	*
1BB-	-nio	-ci-	1G	cae-	-a	2d\	.	-a
!	!	!	!LO:LB:g=original	!	!	!	!	!
.	.	.	.	.	.	2B-/	cae-	in
=74-	=74-	=74-	=74-	=74-	=74-	=74-	=74-	=74-
2AA/	.	-a	1A	-le-	in	2.c/	-le-	cae-
*custos:D	*	*	*	*	*	*	*	*
2AA/	cae-	in	.	.	.	.	.	.
!LO:LB:g=original	!	!	!	!	!	!	!	!
.	.	.	.	.	.	4B-/	-ſti	-li
1D	-le-	cae-	1F	-ſti	cae-	4A/	.	.
*	*	*	*	*	*	*custos:f	*	*
.	.	.	.	.	.	4F/	.	.
!	!	!	!	!	!	!LO:LB:g=original	!	!
.	.	.	.	.	.	2.f\	.	.
=75-	=75-	=75-	=75-	=75-	=75-	=75-	=75-	=75-
2.C/	-ſti	-li	1G	.	-li	.	.	.
.	.	.	.	.	.	4e\	.	.
.	.	.	.	.	.	2.e\	.	.
4BB-/	.	.	.	.	.	.	.	.
*	*	*	*lig	*	*	*	*	*
2AA/	.	.	1F	Do-	pa-	.	.	.
.	.	.	.	.	.	4d\	.	.
2BB-/	.	.	.	.	.	1d\	Do-	pa-
=76-	=76-	=76-	=76-	=76-	=76-	=76-	=76-	=76-
2GG/	Do-	pa-	1E	.	.	.	.	.
2AA/	-mi-	-tri-	.	.	.	2c\	-mi-	-tri-
*	*	*	*Xlig	*	*	*	*	*
1BB-	-no	-a	1D	.	.	1d	-no	-a
=77-	=77-	=77-	=77-	=77-	=77-	=77-	=77-	=77-
1AA	.	.	1E	-mi-	-tri-	1c	.	.
2r	.	.	1F	-no	-a	1c	.	.
2A\	flo-	tol-	.	.	.	.	.	.
=78-	=78-	=78-	=78-	=78-	=78-	=78-	=78-	=78-
2F\	-re	-lun-	1A	flo-	tol-	1r	.	.
1F	vir-	-tur	.	.	.	.	.	.
.	.	.	1c	-re	-lun-	2r	.	.
2E\	-gi-	vi-	.	.	.	2.g\	flo-	tol-
=79-	=79-	=79-	=79-	=79-	=79-	=79-	=79-	=79-
2D/	-ne-	-ti-	1d	vir-	-tur	.	.	.
.	.	.	.	.	.	4f\	.	.
2BB-/	-o	-a	.	.	.	1f	-re	-lun-
2r	.	.	1c	-gi-	vi-	.	.	.
2C/	ro-	per	.	.	.	2e\	.	-tur
=80-	=80-	=80-	=80-	=80-	=80-	=80-	=80-	=80-
2D/	-ſa	mun-	1B-	-ne-	-ti-	2f\	vir-	.
*custos:F	*	*	*	*	*	*	*	*
2E\	cum	-di	.	.	.	2e\	.	vi-
*	*	*	*custos:G	*	*	*	*	*
!LO:LB:g=original	!	!	!	!	!	!	!	!
2F\	li-	ſpa-	1A	-o	-a	2c/	-gi-	-ci-
!	!	!	!LO:LB:g=original	!	!	!	!	!
2FF/	-li-	-ci-	.	.	.	1f\	-ne-	-a
=81-	=81-	=81-	=81-	=81-	=81-	=81-	=81-	=81-
1C	-o	-a	1G	ro-	per	.	.	.
*	*	*	*	*	*	*custos:f	*	*
.	.	.	.	.	.	2e\	-o	.
!	!	!	!	!	!	!LO:LB:g=original	!	!
*	*	*	*	*	*	*	*ij	*ij
1FF	.	.	1A	-ſa	mun-	1f	vir-	tol-
=82-	=82-	=82-	=82-	=82-	=82-	=82-	=82-	=82-
2r	.	.	1G	cum	-di	2.c/	-gi-	-lun-
2C/	gau-	nam	.	.	.	.	.	.
.	.	.	.	.	.	4B-/	.	-tur
2D/	-det	.	1F	li-	ſpa-	2A/	.	vi-
1F\	.	da-	.	.	.	2B-/	.	.
=83-	=83-	=83-	=83-	=83-	=83-	=83-	=83-	=83-
.	.	.	1G	-li-	-ci-	2G/	.	.
2E\	.	-tur	.	.	.	2.g\	.	.
*	*	*	*lig	*	*	*	*	*
2F\	de	.	1A	-o	-a	.	.	.
.	.	.	.	.	.	4f\	.	.
2A\	fi-	gra-	.	.	.	1f\	.	.
=84-	=84-	=84-	=84-	=84-	=84-	=84-	=84-	=84-
1G	-li-	-ti-	1B-	.	.	.	.	.
.	.	.	.	.	.	2e\	-ne-	-ci-
*	*	*	*Xlig	*	*	*	*	*
2F\	-o	-a	1A	.	.	2f\	-o	-a
*	*ij	*ij	*	*	*	*	*Xij	*Xij
2FF/	gau-	nam	.	.	.	1f\	ro-	per
=85-	=85-	=85-	=85-	=85-	=85-	=85-	=85-	=85-
*	*	*	*lig	*	*	*	*	*
2FF/	-det	da-	1c	gau-	nam	.	.	.
2FF/	de	-tur	.	.	.	2f\	-ſa	mun-
2.BB-/	fi-	gra-	1d	.	.	2f\	cu(m)	-di
.	.	.	.	.	.	1f\	li-	ſpa-
4BB-/	.	.	.	.	.	.	.	.
*	*	*	*Xlig	*	*	*	*	*
=86-	=86-	=86-	=86-	=86-	=86-	=86-	=86-	=86-
2FF/	.	.	1c	.	.	.	.	.
*custos:D	*	*	*	*	*	*	*	*
2F\	.	.	.	.	.	2f\	-li-	-ci-
!LO:LB:g=original	!	!	!	!	!	!	!	!
2D/	.	.	1F	-det	da-	1f	-o	-a
1F\	.	.	.	.	.	.	.	.
=87-	=87-	=87-	=87-	=87-	=87-	=87-	=87-	=87-
*	*	*	*lig	*	*	*	*	*
.	.	.	1G	de	-tur	2r	.	.
2E\	.	.	.	.	.	2c/	gau-	nam
*	*	*	*custos:B-	*	*	*	*	*
2D/	.	.	1A	fi-	gra-	2d\	-det	da-
!	!	!	!LO:LB:g=original	!	!	!	!	!
2C/	.	.	.	.	.	2e\	de	-tur
*	*	*	*	*	*	*custos:d	*	*
*	*	*	*Xlig	*	*	*	*	*
=88-	=88-	=88-	=88-	=88-	=88-	=88-	=88-	=88-
*	*	*	*lig	*	*	*	*	*
2BB-/	.	.	1B-	.	.	2d\	fi-	gra-
!	!	!	!	!	!	!LO:LB:g=original	!	!
2GG/	.	.	.	.	.	2.g\	-li-	.
2AA/	.	.	1A	.	.	.	.	.
.	.	.	.	.	.	4f\	.	-ti-
2FF/	.	.	.	.	.	1f\	-o	-a
*	*	*	*Xlig	*	*	*	*	*
=89-	=89-	=89-	=89-	=89-	=89-	=89-	=89-	=89-
*	*	*	*lig	*	*	*	*	*
2.C/	.	.	1G	-li-	ti-	.	.	.
.	.	.	.	.	.	2e\	.	.
4BB-/	.	.	.	.	.	.	.	.
2AA/	.	.	1F	-o	-a-	2f\	.	.
2BB-/	-li-	-ti-	.	.	.	2d\	.	.
*	*	*	*Xlig	*	*	*	*	*
=90-	=90-	=90-	=90-	=90-	=90-	=90-	=90-	=90-
0FF	-o	-a	0F	.	.	0c	.	.
*	*Xij	*Xij	*	*	*	*	*	*
=91||-	=91||-	=91||-	=91||-	=91||-	=91||-	=91||-	=91||-	=91||-
2.AA/	V-	.	1A	V-	.	4A/	V-	.
.	.	.	.	.	.	4B-/	.	.
.	.	.	.	.	.	4c\	.	.
4BB-/	-bi	.	.	.	.	4d\	.	.
2C/	.	.	1G	-bi	.	2e\	-bi	.
*custos:AA	*	*	*	*	*	*	*	*
2BB-/	.	.	.	.	.	2d\	.	.
!LO:LB:g=original	!	!	!	!	!	!	!	!
=92-	=92-	=92-	=92-	=92-	=92-	=92-	=92-	=92-
2AA/	tri-	.	1A	tri-	.	2c/	tri-	.
2FF/	-nus	.	.	.	.	1f	-nuſ	.
*	*	*	*custos:A	*	*	*	*	*
1GG	re-	.	1B-	-nus	.	.	.	.
.	.	.	.	.	.	2e\	re-	.
=93-	=93-	=93-	=93-	=93-	=93-	=93-	=93-	=93-
2FF/	-gnas	.	1A	re-	.	2f\	-gnas	.
*	*	*	*	*	*	*custos:d	*	*
1F	.	.	.	.	.	2c/	et	.
!	!	!	!	!	!	!LO:LB:g=original	!	!
.	.	.	1G	-gnas	.	2d\	ſo-	.
2E\	et	.	.	.	.	2e\	-lus	.
=94-	=94-	=94-	=94-	=94-	=94-	=94-	=94-	=94-
2D\	ſo-	.	1A	et	.	2f\	.	.
2C/	-lus	.	.	.	.	2.e\	gu-	.
1D	gu-	.	1F	ſo-	.	.	.	.
.	.	.	.	.	.	4d\	.	.
.	.	.	.	.	.	1d\	-ber-	.
=95-	=95-	=95-	=95-	=95-	=95-	=95-	=95-	=95-
1E	.	.	1G	-lus	.	.	.	.
.	.	.	.	.	.	2c/	-nas	.
*	*	*	*lig	*	*	*	*	*
2D\	-ber-	.	1F	gu-	.	2d\	.	.
1D\	-nas	.	.	.	.	2d\	i-	.
=96-	=96-	=96-	=96-	=96-	=96-	=96-	=96-	=96-
.	.	.	1E	.	.	2e\	-bi	.
*	*ij	*	*	*	*	*	*	*
2C/	ſo-	.	.	.	.	2e\	con-	.
*	*	*	*Xlig	*	*	*	*	*
2BB-/	-lus	.	1D	.	.	2f\	-ſti-	.
2GG/	gu-	.	.	.	.	2g\	-tu-	.
=97-	=97-	=97-	=97-	=97-	=97-	=97-	=97-	=97-
1C	-ber-	.	1E	-ber-	.	1c	-as	.
1FF	-nas	.	0F	-nas	.	2r	.	.
*	*Xij	*	*	*	*	*	*	*
.	.	.	.	.	.	2f\	mi-	.
=98-	=98-	=98-	=98-	=98-	=98-	=98-	=98-	=98-
2r	.	.	.	.	.	2d\	.	.
2F\	i-	.	.	.	.	1f	-ſe-	.
2D/	-bi	.	1F	i-	.	.	.	.
1F\	.	.	.	.	.	4e\	.	.
.	.	.	.	.	.	4d\	.	.
=99-	=99-	=99-	=99-	=99-	=99-	=99-	=99-	=99-
.	.	.	1c	-bi	.	4c\	-ras	.
.	.	.	.	.	.	4d\	.	.
4E\	con-	.	.	.	.	4e\	.	.
*custos:C	*	*	*	*	*	*custos:g	*	*
4D/	.	.	.	.	.	4f\	.	.
*	*	*	*custos:d	*	*	*	*	*
!LO:LB:g=original	!	!	!	!	!	!LO:LB:g=original	!	!
2C/	-ſti-	.	1c	con-	.	2g\	.	.
!	!	!	!LO:LB:g=original	!	!	!	!	!
2C/	-tu-	.	.	.	.	1g\	a-	.
=100-	=100-	=100-	=100-	=100-	=100-	=100-	=100-	=100-
2.GG/	-as	.	1d	-ſti-	.	.	.	.
.	.	.	.	.	.	4f\	.	.
4AA/	.	.	.	.	.	4e\	.	.
1BB-	.	.	1B-	-tu-	.	2.d\	.	.
.	.	.	.	.	.	4e\	.	.
=101-	=101-	=101-	=101-	=101-	=101-	=101-	=101-	=101-
2FF/	mi-	.	1c	-as	.	2f\	-ni-	.
2FF/	-ſe-	.	.	.	.	2f\	-mas	.
1BB-	-ras	.	1F	mi-	.	2d\	.	.
.	.	.	.	.	.	2d\	.	.
=102-	=102-	=102-	=102-	=102-	=102-	=102-	=102-	=102-
2GG/	a-	.	1G	-ſe-	.	4g\	.	.
.	.	.	.	.	.	4f\	.	.
4C/	.	.	.	.	.	4e\	.	.
4BB-/	.	.	.	.	.	4d\	.	.
*	*	*	*lig	*	*	*	*	*
4AA/	.	.	1A	-ras	.	2c/	.	.
4GG/	.	.	.	.	.	.	.	.
2FF/	.	.	.	.	.	1f\	.	.
=103-	=103-	=103-	=103-	=103-	=103-	=103-	=103-	=103-
1BB-	-ni-	.	1B-	.	.	.	.	.
.	.	.	.	.	.	4e\	.	.
.	.	.	.	.	.	4d\	.	.
*	*	*	*Xlig	*	*	*	*	*
2AA/	-mas	.	1c	a-	.	2.e\	.	.
1A\	mi-	.	.	.	.	.	.	.
.	.	.	.	.	.	8d\L	.	.
.	.	.	.	.	.	8e\J	.	.
=104-	=104-	=104-	=104-	=104-	=104-	=104-	=104-	=104-
*	*	*	*lig	*	*	*	*	*
.	.	.	1B-	-ni-	.	2f\	.	.
2G\	-ſe-	.	.	.	.	2.e\	.	.
2F\	-ras	.	1A	.	.	.	.	.
.	.	.	.	.	.	4d\	.	.
2D/	a-	.	.	.	.	1d\	.	.
*	*	*	*Xlig	*	*	*	*	*
=105-	=105-	=105-	=105-	=105-	=105-	=105-	=105-	=105-
*custos:D	*	*	*	*	*	*	*	*
1E	-ni-	.	1G	.	.	.	.	.
*	*	*	*	*	*	*custos:d	*	*
!LO:PB:g=original	!	!	!	!	!	!	!	!
.	.	.	.	.	.	2c/	om-	.
*	*	*	*custos:c	*	*	*	*	*
!	!	!	!	!	!	!LO:LB:g=original	!	!
1D	-mas	.	1A	-mas	.	2d\	-ni	.
!	!	!	!LO:LB:g=original	!	!	!	!	!
.	.	.	.	.	.	2f\	bo-	.
=106-	=106-	=106-	=106-	=106-	=106-	=106-	=106-	=106-
*	*	*	*lig	*	*	*	*	*
0r	.	.	1c	om-	.	2e\	-no	.
.	.	.	.	.	.	2.g\	re-	.
.	.	.	1d	.	.	.	.	.
.	.	.	.	.	.	4f\	.	.
.	.	.	.	.	.	1f\	-ples	.
*	*	*	*Xlig	*	*	*	*	*
=107-	=107-	=107-	=107-	=107-	=107-	=107-	=107-	=107-
*lig	*	*	*	*	*	*	*	*
1C	o-	.	1c	.	.	.	.	.
.	.	.	.	.	.	2e\	.	.
1D	-mni	.	1F	-ni	.	1f	.	.
*Xlig	*	*	*	*	*	*	*	*
=108-	=108-	=108-	=108-	=108-	=108-	=108-	=108-	=108-
1C	.	.	1G	bo-	.	2r	.	.
.	.	.	.	.	.	2e\	o-	.
*	*	*	*lig	*	*	*	*	*
1FF	.	.	1F	-no	.	2f\	-mni	.
.	.	.	.	.	.	1d\	bo-	.
=109-	=109-	=109-	=109-	=109-	=109-	=109-	=109-	=109-
2GG/	bo-	.	1E	.	.	.	.	.
2AA/	-no	.	.	.	.	2c/	.	.
*	*	*	*Xlig	*	*	*	*	*
1BB-	re-	.	1D	re-	.	1d	-no	.
=110-	=110-	=110-	=110-	=110-	=110-	=110-	=110-	=110-
1C	-le-	.	1E	-ple-	.	1c	re-	.
1FF	-as.	.	1F	-as	.	1c	-ples	.
=111||-	=111||-	=111||-	=111||-	=111||-	=111||-	=111||-	=111||-	=111||-
*	*	*	*lig	*	*	*	*	*
2.FF/	A-	.	1F	A-	.	0c	A-	.
4GG/	.	.	.	.	.	.	.	.
4AA/	.	.	1E	.	.	.	.	.
4BB-/	.	.	.	.	.	.	.	.
1C/	.	.	.	.	.	.	.	.
*	*	*	*Xlig	*	*	*	*	*
=112-	=112-	=112-	=112-	=112-	=112-	=112-	=112-	=112-
*	*	*	*custos:E	*	*	*custos:c	*	*
.	.	.	1D	.	.	1d	.	.
*custos:C	*	*	*	*	*	*	*	*
!	!	!	!LO:LB:g=original	!	!	!LO:PB:g=original	!	!
2BB-/	.	.	.	.	.	.	.	.
!LO:LB:g=original	!	!	!	!	!	!	!	!
*	*	*	*lig	*	*	*	*	*
1C	.	.	1E	.	.	2.c/	.	.
.	.	.	.	.	.	4B-/	.	.
=113-	=113-	=113-	=113-	=113-	=113-	=113-	=113-	=113-
1FF	-men	.	1C	.	.	4A/	.	.
.	.	.	.	.	.	4F/	.	.
.	.	.	.	.	.	1f	-men	.
*	*	*	*Xlig	*	*	*	*	*
*	*	*	*lig	*	*	*	*	*
1r	.	.	1G	.	.	.	.	.
.	.	.	.	.	.	2e\	.	.
=114-	=114-	=114-	=114-	=114-	=114-	=114-	=114-	=114-
2r	.	.	1F	.	.	2f\	.	.
2BB-/	A-	.	.	.	.	2d\	.	.
*	*	*	*Xlig	*	*	*	*	*
2GG/	.	.	1G	.	.	4g\	.	.
.	.	.	.	.	.	4f\	.	.
4C/	.	.	.	.	.	4e\	.	.
4BB-/	.	.	.	.	.	4d\	.	.
=115-	=115-	=115-	=115-	=115-	=115-	=115-	=115-	=115-
4AA/	.	.	1A	.	.	2c/	.	.
4GG/	.	.	.	.	.	.	.	.
2FF/	-men	.	.	.	.	2f\	.	.
*	*ij	*	*lig	*	*	*	*	*
1BB-	A-	.	1B-	.	.	2.d\	.	.
.	.	.	.	.	.	4e\	.	.
=116-	=116-	=116-	=116-	=116-	=116-	=116-	=116-	=116-
4FF/	.	.	1A	.	.	2f\	.	.
4GG/	.	.	.	.	.	.	.	.
4AA/	.	.	.	.	.	4e\	.	.
4BB-/	.	.	.	.	.	4d\	.	.
*	*	*	*Xlig	*	*	*	*	*
2C/	.	.	0G	-men	.	2e\	A-	.
2BB-/	.	.	.	.	.	1f\	.	.
=117-	=117-	=117-	=117-	=117-	=117-	=117-	=117-	=117-
1C	.	.	.	.	.	.	.	.
*	*	*	*	*	*	*custos:f	*	*
.	.	.	.	.	.	2e\	.	.
!	!	!	!	!	!	!LO:LB:g=original	!	!
1FF	-men	.	1%11F	.	.	0f	-men	.
*	*Xij	*	*	*	*	*	*	*
=118-	=118-	=118-	=118-	=118-	=118-	=118-	=118-	=118-
2r	.	.	.	.	.	.	.	.
*custos:F	*	*	*	*	*	*	*	*
2F\	A-	.	.	.	.	.	.	.
!LO:LB:g=original	!	!	!	!	!	!	!	!
2.F\	.	.	.	.	.	2r	.	.
.	.	.	.	.	.	2f\	A-	.
4E\	.	.	.	.	.	.	.	.
=119-	=119-	=119-	=119-	=119-	=119-	=119-	=119-	=119-
2.D/	.	.	.	.	.	2.f\	.	.
4C/	.	.	.	.	.	4e\	.	.
0.BB-	.	.	.	.	.	2.d/	-men	.
.	.	.	.	.	.	4c/	.	.
=120-	=120-	=120-	=120-	=120-	=120-	=120-	=120-	=120-
.	.	.	.	.	.	2.B-/	.	.
.	.	.	.	.	.	4c/	.	.
.	.	.	.	.	.	1.d	.	.
=121-	=121-	=121-	=121-	=121-	=121-	=121-	=121-	=121-
00FF	-men	.	.	.	.	.	.	.
.	.	.	.	.	.	4c/	.	.
.	.	.	.	.	.	4B-/	.	.
.	.	.	.	.	.	0.c	.	.
=122-	=122-	=122-	=122-	=122-	=122-	=122-	=122-	=122-
.	.	.	.	.	.	.	.	.
=-	=-	=-	=-	=-	=-	=-	=-	=-
*-	*-	*-	*-	*-	*-	*-	*-	*-
!!!system-decoration: s1,s2,s3
!!!ENC: Anastazja Marusiak
!!!END: 2022-01-23
!!!ENC: Julita Ruszuk
!!!END: 2022-01-29
!!!YEC: Copyright 2022 Narodowy Instytut Fryderyka Chopina (https://polishscores.org)
!!!YEM: Licence CC BY 4.0 (https://creativecommons.org/licenses/by/4.0)
